public/logo-guide.svg

<svg xmlns="http://www.w3.org/2000/svg" width="640" height="400" viewBox="0 0 640 400" xmlns:xlink="http://www.w3.org/1999/xlink">
  <defs>
    <path id="a" d="M41 35h554v327H41z"/>
    <mask id="c" width="554" height="327" x="0" y="0" fill="#fff">
      <use xlink:href="#a"/>
    </mask>
    <path id="b" d="M150 144h336v110H150z"/>
    <mask id="d" width="336" height="110" x="0" y="0" fill="#fff">
      <use xlink:href="#b"/>
    </mask>
    <path id="e" d="M216.443504 232.871775c-4.839652-5.778395-7.76908-13.225008-7.76908-21.353961l.013595-52.839908c0-4.309113 3.484919-7.8132 7.769081-7.8132 4.283677 0 7.76908 3.504087 7.76908 7.8132l-.013596 52.839908c0 8.128953-2.929428 15.575566-7.76908 21.353961zm58.268103-21.353961c0 18.310796-14.648115 33.206953-32.854955 33.206953-7.333527 0-14.175173-2.44636-19.661115-6.529654 6.134174-7.180226 9.786128-16.491057 9.786128-26.677299l.013596-52.839908c0-8.616271-6.970808-15.626399-15.538161-15.626399-8.567839 0-15.538161 7.010128-15.538161 15.626399l-.013596 52.839908c0 10.186242 3.897165 19.497073 10.03134 26.677299-5.485942 4.083294-12.327589 6.529654-19.661115 6.529654-18.20684 0-33.100167-14.896157-33.100167-33.206953v-64.459751h-7.76908v64.459751c0 22.617954 18.460306 41.020153 40.951308 41.020153 9.535089 0 18.378245-3.332524 25.331087-8.867016 6.952841 5.534492 15.592058 8.867016 25.127148 8.867016 22.490517 0 40.665309-18.402199 40.665309-41.020153v-64.459751h-7.769566v64.459751zm31.089481 38.9504h7.76908V146.846175h-7.76908v103.622039zm75.786311-105.428728c-15.330824 0-28.882528 7.801468-36.941492 19.663259v-17.856228h-7.76908v103.62204h7.76908v-60.457106h.00437c0-20.481483 16.569992-37.143614 36.937122-37.143614v-7.828351zm14.561004 83.362171c-15.116688-18.032679-14.242181-45.110291 2.628863-62.093063 16.871044-16.982773 43.770513-17.863071 61.684556-2.646273l-64.313419 64.739336zm75.318322-64.756932c-.841974-.979521-1.722794-1.93607-2.646343-2.866225-20.825506-20.963422-54.711321-20.963422-75.536827 0-20.825506 20.963423-20.825506 55.073648 0 76.037071 20.822592 20.960001 54.701124 20.962934 75.527601.008798l-5.493711-5.530093c-16.871529 16.973974-43.764687 17.85134-61.675331 2.637474l32.147484-32.36087 37.677127-37.926155zm7.183-15.908182h2.718207v7.045809h.827893v-7.045809h2.72986v-.774722h-6.27596v.774722zm14.441701-.774917l-2.706554 6.787243-2.694414-6.787243h-1.271701v7.820531h.792932v-6.986667l2.776475 6.986667h.757971l2.764821-6.963206v6.963206h.805071v-7.820531h-1.224601z"/>
  </defs>
  <g fill="none" fill-rule="evenodd" transform="translate(2)">
    <ellipse cx="96" cy="199" stroke="#FB0807" stroke-opacity=".24" rx="54" ry="54"/>
    <circle cx="539.593679" cy="199" r="54" stroke="#FB0807" stroke-opacity=".24"/>
    <ellipse cx="318" cy="90" stroke="#FB0807" stroke-opacity=".24" rx="54" ry="54"/>
    <circle cx="317.5" cy="307.5" r="53.5" stroke="#FB0807" stroke-opacity=".24"/>
    <path stroke="#E6EBEE" d="M150.5.5v399M41.5.5v399m444-399v399m109-399v399M0 144.5h635.052684M0 253.5h635.052684M0 35.5h635.052684M0 361.5h635.052684" stroke-linecap="square"/>
    <use fill="#FB0807" fill-opacity=".04" stroke="#BAC8D1" stroke-width="2" mask="url(#c)" xlink:href="#a"/>
    <use fill="#FFF" stroke="#BAC8D1" stroke-width="2" mask="url(#d)" xlink:href="#b"/>
    <circle cx="430.75" cy="198.75" r="53.75" fill="#FB0807" fill-opacity=".32"/>
    <use fill="#8D989F" xlink:href="#e"/>
    <use fill="#000" fill-opacity=".72" xlink:href="#e"/>
  </g>
</svg>

<svg xmlns="http://www.w3.org/2000/svg" width="637" height="400" viewBox="0 0 637 400" xmlns:xlink="http://www.w3.org/1999/xlink">
  <defs>
    <rect id="a" width="554" height="327" x="41" y="35"/>
    <mask id="c" width="554" height="327" x="0" y="0" fill="white">
      <use xlink:href="#a"/>
    </mask>
    <rect id="b" width="336" height="110" x="150" y="144"/>
    <mask id="d" width="336" height="110" x="0" y="0" fill="white">
      <use xlink:href="#b"/>
    </mask>
    <path id="e" d="M216.443504,232.871775 C211.603852,227.09338 208.674424,219.646767 208.674424,211.517814 L208.688019,158.677906 C208.688019,154.368793 212.172938,150.864706 216.4571,150.864706 C220.740777,150.864706 224.22618,154.368793 224.22618,158.677906 L224.212584,211.517814 C224.212584,219.646767 221.283156,227.09338 216.443504,232.871775 L216.443504,232.871775 Z M274.711607,211.517814 C274.711607,229.82861 260.063492,244.724767 241.856652,244.724767 C234.523125,244.724767 227.681479,242.278407 222.195537,238.195113 C228.329711,231.014887 231.981665,221.704056 231.981665,211.517814 L231.995261,158.677906 C231.995261,150.061635 225.024453,143.051507 216.4571,143.051507 C207.889261,143.051507 200.918939,150.061635 200.918939,158.677906 L200.905343,211.517814 C200.905343,221.704056 204.802508,231.014887 210.936683,238.195113 C205.450741,242.278407 198.609094,244.724767 191.275568,244.724767 C173.068728,244.724767 158.175401,229.82861 158.175401,211.517814 L158.175401,147.058063 L150.406321,147.058063 L150.406321,211.517814 C150.406321,234.135768 168.866627,252.537967 191.357629,252.537967 C200.892718,252.537967 209.735874,249.205443 216.688716,243.670951 C223.641557,249.205443 232.280774,252.537967 241.815864,252.537967 C264.306381,252.537967 282.481173,234.135768 282.481173,211.517814 L282.481173,147.058063 L274.711607,147.058063 L274.711607,211.517814 Z M305.801088,250.468214 L313.570168,250.468214 L313.570168,146.846175 L305.801088,146.846175 L305.801088,250.468214 Z M381.587399,145.039486 C366.256575,145.039486 352.704871,152.840954 344.645907,164.702745 L344.645907,146.846517 L336.876827,146.846517 L336.876827,250.468557 L344.645907,250.468557 L344.645907,190.011451 L344.650277,190.011451 C344.650277,169.529968 361.220269,152.867837 381.587399,152.867837 L381.587399,145.039486 Z M396.148403,228.401657 C381.031715,210.368978 381.906222,183.291366 398.777266,166.308594 C415.64831,149.325821 442.547779,148.445523 460.461822,163.662321 L396.148403,228.401657 Z M471.466725,163.644725 C470.624751,162.665204 469.743931,161.708655 468.820382,160.7785 C447.994876,139.815078 414.109061,139.815078 393.283555,160.7785 C372.458049,181.741923 372.458049,215.852148 393.283555,236.815571 C414.106147,257.775572 447.984679,257.778505 468.811156,236.824369 L463.317445,231.294276 C446.445916,248.26825 419.552758,249.145616 401.642114,233.93175 L433.789598,201.57088 L471.466725,163.644725 Z M478.649725,147.736543 L481.367932,147.736543 L481.367932,154.782352 L482.195825,154.782352 L482.195825,147.736543 L484.925685,147.736543 L484.925685,146.961821 L478.649725,146.961821 L478.649725,147.736543 Z M493.091426,146.961626 L490.384872,153.748869 L487.690458,146.961626 L486.418757,146.961626 L486.418757,154.782157 L487.211689,154.782157 L487.211689,147.79549 L489.988164,154.782157 L490.746135,154.782157 L493.510956,147.818951 L493.510956,154.782157 L494.316027,154.782157 L494.316027,146.961626 L493.091426,146.961626 Z"/>
  </defs>
  <g fill="none" fill-rule="evenodd" transform="translate(1)">
    <ellipse cx="96" cy="199" stroke="#FB0807" stroke-opacity=".24" rx="54" ry="54"/>
    <circle cx="539.594" cy="199" r="54" stroke="#FB0807" stroke-opacity=".24"/>
    <ellipse cx="318" cy="90" stroke="#FB0807" stroke-opacity=".24" rx="54" ry="54"/>
    <circle cx="317.5" cy="307.5" r="53.5" stroke="#FB0807" stroke-opacity=".24"/>
    <path stroke="#E6EBEE" d="M150.5.5L150.5 399.5M41.5.5L41.5 399.5M485.5.5L485.5 399.5M594.5.5L594.5 399.5M0 144.5L635.052684 144.5M0 253.5L635.052684 253.5M0 35.5L635.052684 35.5M0 361.5L635.052684 361.5" stroke-linecap="square"/>
    <use fill="#FB0807" fill-opacity=".04" stroke="#BAC8D1" stroke-width="2" mask="url(#c)" xlink:href="#a"/>
    <use fill="#FFFFFF" stroke="#BAC8D1" stroke-width="2" mask="url(#d)" xlink:href="#b"/>
    <circle cx="430.75" cy="198.75" r="53.75" fill="#FB0807" fill-opacity=".32"/>
    <use fill="#8D989F" xlink:href="#e"/>
    <use fill="#000000" fill-opacity=".72" xlink:href="#e"/>
  </g>
</svg>
